X:1
T:Title
%%score { 1 | 2 }
L:1/8
M:4/4
K:G
V:1 treble nm="Grand Piano"
V:2 bass 
V:1
 z4 z2[Q:1/4=106] [DB]2 | [CA]3 [B,G] [B,D]2 [B,E]2 | [F,CE]3 [F,CD] [F,CD]2[K:treble] [Ec]2 | %3
 B2 A2 E2 F2 |[M:3/4] [B,D]6 |[M:1/4] [DB]2 |[M:4/4] [CA]3 [B,G][K:bass] [D,B,D]2 [G,B,E]2 | %7
 [F,CE]3 [F,CD] [F,CD]2[K:treble] [Ec]2 | B2 A2 E2 F2 |[M:3/4] [B,G]6 |[M:1/4] [^DB]2 | %11
[M:4/4] [^DB]3 [Dc] [DB]2 [FA]2 | [FA]3 G G2 G2 | A2 G2 [^CF]2 [CE]2 |[M:3/4] A6 |[M:1/4] D2 | %16
[M:4/4] B3 d c2 B2 | [GB]3 [GA] [GA]2 [GA]2 | [FA]2 [Fc]2 [FB]2 A2 |[M:3/4] d6 |[M:1/4] d2 | %21
[M:4/4] e3 d c2 B2 |[M:9/8] [EB]3 [EA] [EA]2- [EA] [EG]2 |[M:4/4] [DG]2 [GB]2 [FA]3 G | %24
[M:3/4] G6 |] %25
V:2
 z4 z2 [G,,G,]2 | [G,,D,]3 [G,,D,] [G,,G,]2 [G,,G,]2 | A,,3 A,, A,,2 D,2 | %3
 [D,F,D]2 [D,F,C]2 [D,A,C]2 [D,A,C]2 |[M:3/4] [G,,G,]6 |[M:1/4] [G,,G,]2 | %6
[M:4/4] [G,,D,]3 [G,,D,] G,,2 G,,2 | A,,3 A,, A,,2 D,2 | [D,F,D]2 [D,F,C]2 [D,A,C]2 [D,A,C]2 | %9
[M:3/4] [G,,G,]6 |[M:1/4] [B,,F,]2 |[M:4/4] [B,,F,]3 [B,,F,] [B,,F,]2 [^D,B,]2 | %12
 [E,B,]3 [E,B,E] [E,B,E]2 [E,B,D]2 | [E,A,^C]2 [E,A,C]2 [A,,A,]2 [A,,G,]2 |[M:3/4] [D,F,C]6 | %15
[M:1/4] D,2 |[M:4/4][K:treble] [G,D]3 [G,=F][K:bass] [G,E]2 [G,D]2 | [E,C]3 [E,C] [E,C]2 [E,C]2 | %18
 [D,D]2 [D,A,]2 [D,D]2[K:treble] [CDF]2 |[M:3/4] [B,DG]6 |[M:1/4] [CDF]2 | %21
[M:4/4] [CG]3 [B,DG] [A,DF]2 [G,DG]2 |[M:9/8][K:bass] [C,C]3 [C,C] [C,C]2- [C,C] [^C,A,]2 | %23
[M:4/4] [D,B,]2 [D,D]2 [D,C]3 [G,B,] |[M:3/4] [G,B,]6 |] %25

